communes/3851.svg

<?xml version="1.0" encoding="UTF-8"?>
<svg width="438" height="480" version="1.1" viewBox="21 15 438 480" xmlns="http://www.w3.org/2000/svg" xmlns:cc="http://creativecommons.org/ns#" xmlns:dc="http://purl.org/dc/elements/1.1/" xmlns:rdf="http://www.w3.org/1999/02/22-rdf-syntax-ns#">
<metadata>xmlns:rdf="http://www.w3.org/1999/02/22-rdf-syntax-ns#"
         xmlns:dc="http://purl.org/dc/elements/1.1/"&gt;

 dc:title="Wappen Davos (CH-GR)"
 dc:date="2006-10-26"
 dc:format="image/svg+xml"
 dc:language="de"&gt;
 dc:creator="http://de.wikipedia.org/wiki/Benutzer:Bernina"
<rdf:RDF>
<cc:Work rdf:about="">
<dc:format>image/svg+xml</dc:format>
<dc:type rdf:resource="http://purl.org/dc/dcmitype/StillImage"/>
</cc:Work>
</rdf:RDF>
</metadata>
<title>Wappen Davos (CH-GR)</title>
<defs>
<clipPath id="a">
<path d="m360 4140a3240 3240 0 0 0 6480 0v-3870h-6480v3870z"/>
</clipPath>
<style type="text/css"><![CDATA[
  .Rand3 { stroke: #202020; stroke-width:45; }
  .Rand6 { stroke: #202020; stroke-width:90; }
  .Blau { fill: #0000ff; }
  .Gold { fill: #ffef00; }
  ]]></style>
</defs>
<g transform="scale(.066667)" fill="none" fill-rule="evenodd" stroke-miterlimit="10" stroke-width="10">
<g clip-path="url(#a)">
<path class="Blau" d="m-225 3600h3825v-3825h-3825v3825z" fill="#0f47af"/>
<path class="Blau" d="m3600 7425h3825v-3825h-3825v3825z" fill="#0f47af"/>
<path class="Gold" d="m3600-225v3825h3825v-3825h-3825z" fill="#fcdd09"/>
<path class="Gold" d="m-225 3600v3825h3825v-3825h-3825z" fill="#fcdd09"/>
<path class="Gold" d="m-225 3600h3825v-3825h-720v3105h-3105v720z" fill="#fcdd09"/>
<path class="Gold" d="m7425 3600h-3825v3825h720v-3105h3105v-720z" fill="#fcdd09"/>
<path class="Blau" d="m3600-225v3825h3825v-720h-3105v-3105h-720z" fill="#0f47af"/>
<path class="Blau" d="m3600 7425v-3825h-3825v720h3105v3105h720z" fill="#0f47af"/>
<path class="Rand3" d="m2880-225v3105h-3105"/>
<path class="Rand3" d="m-225 4320h3105v3105"/>
<path class="Rand3" d="m4320-225v3105h3105"/>
<path class="Rand3" d="m7425 4320h-3105v3105"/>
<path class="Rand3" d="m-225 3600h7650"/>
<path class="Rand3" d="m3600-225v7650"/>
</g>
<path class="Rand6" d="m360 4140a3240 3240 0 0 0 6480 0v-3870h-6480v3870z"/>
</g>
</svg>

<?xml version="1.0" encoding="UTF-8" standalone="no"?>
<!-- Auto-generated by fig2svg tool
     Date: Thu Oct 26 13:16:34 2006 -->

<svg
   xmlns:dc="http://purl.org/dc/elements/1.1/"
   xmlns:cc="http://creativecommons.org/ns#"
   xmlns:rdf="http://www.w3.org/1999/02/22-rdf-syntax-ns#"
   xmlns:svg="http://www.w3.org/2000/svg"
   xmlns="http://www.w3.org/2000/svg"
   xmlns:sodipodi="http://sodipodi.sourceforge.net/DTD/sodipodi-0.dtd"
   xmlns:inkscape="http://www.inkscape.org/namespaces/inkscape"
   width="438"
   height="480"
   viewBox="21 15 438 480"
   version="1.1"
   id="svg32"
   sodipodi:docname="Davos_wappen.svg"
   inkscape:version="0.92.2 (5c3e80d, 2017-08-06)">
  <sodipodi:namedview
     pagecolor="#ffffff"
     bordercolor="#666666"
     borderopacity="1"
     objecttolerance="10"
     gridtolerance="10"
     guidetolerance="10"
     inkscape:pageopacity="0"
     inkscape:pageshadow="2"
     inkscape:window-width="1920"
     inkscape:window-height="1017"
     id="namedview34"
     showgrid="false"
     inkscape:zoom="0.49166667"
     inkscape:cx="971.09421"
     inkscape:cy="-143.79684"
     inkscape:window-x="-8"
     inkscape:window-y="-8"
     inkscape:window-maximized="1"
     inkscape:current-layer="svg32" />
  <metadata
     id="metadata2">
 xmlns:rdf=&quot;http://www.w3.org/1999/02/22-rdf-syntax-ns#&quot;
         xmlns:dc=&quot;http://purl.org/dc/elements/1.1/&quot;&gt;

 dc:title=&quot;Wappen Davos (CH-GR)&quot;
 dc:date=&quot;2006-10-26&quot;
 dc:format=&quot;image/svg+xml&quot;
 dc:language=&quot;de&quot;&gt;
 dc:creator=&quot;http://de.wikipedia.org/wiki/Benutzer:Bernina&quot;

<rdf:RDF>
  <cc:Work
     rdf:about="">
    <dc:format>image/svg+xml</dc:format>
    <dc:type
       rdf:resource="http://purl.org/dc/dcmitype/StillImage" />
  </cc:Work>
</rdf:RDF>
</metadata>
  <title
     id="title4">
Wappen Davos (CH-GR)
</title>
  <defs
     id="defs11">
    <clipPath
       id="clippath">
      <path
         d="M360,4140 A3240,3240 0.0 0 0 6840,4140 L6840,270 L360,270 L360,4140 Z"
         id="path6" />
    </clipPath>
    <style
       type="text/css"
       id="style9"><![CDATA[
  .Rand3 { stroke: #202020; stroke-width:45; }
  .Rand6 { stroke: #202020; stroke-width:90; }
  .Blau { fill: #0000ff; }
  .Gold { fill: #ffef00; }
  ]]></style>
  </defs>
  <g
     stroke="none"
     stroke-miterlimit="10"
     stroke-width="10"
     stroke-linecap="butt"
     stroke-linejoin="miter"
     fill="none"
     fill-rule="evenodd"
     transform="scale(0.066667)"
     id="g30">
    <g
       clip-path="url(#clippath)"
       id="g27">
      <path
         id="feldor-1"
         class="Blau"
         d="M-225,3600 L3600,3600 L3600,-225 L-225,-225 L-225,3600 Z"
         style="fill:#0f47af;fill-opacity:1" />
      <path
         id="feldul-1"
         class="Blau"
         d="M3600,7425 L7425,7425 L7425,3600 L3600,3600 L3600,7425 Z"
         style="fill:#0f47af;fill-opacity:1" />
      <path
         id="feldol-1"
         class="Gold"
         d="M3600,-225 L3600,3600 L7425,3600 L7425,-225 L3600,-225 Z"
         style="fill:#fcdd09;fill-opacity:1" />
      <path
         id="feldur-1"
         class="Gold"
         d="M-225,3600 L-225,7425 L3600,7425 L3600,3600 L-225,3600 Z"
         style="fill:#fcdd09;fill-opacity:1" />
      <path
         id="kreuzor-1"
         class="Gold"
         d="M-225,3600 L3600,3600 L3600,-225 L2880,-225 L2880,2880 L-225,2880          L-225,3600 Z"
         style="fill:#fcdd09;fill-opacity:1" />
      <path
         id="kreuzul-1"
         class="Gold"
         d="M7425,3600 L3600,3600 L3600,7425 L4320,7425 L4320,4320 L7425,4320          L7425,3600 Z"
         style="fill:#fcdd09;fill-opacity:1" />
      <path
         id="kreuzol-1"
         class="Blau"
         d="M3600,-225 L3600,3600 L7425,3600 L7425,2880 L4320,2880 L4320,-225          L3600,-225 Z"
         style="fill:#0f47af;fill-opacity:1" />
      <path
         id="kreuzur-1"
         class="Blau"
         d="M3600,7425 L3600,3600 L-225,3600 L-225,4320 L2880,4320 L2880,7425          L3600,7425 Z"
         style="fill:#0f47af;fill-opacity:1" />
      <path
         id="linie-1"
         class="Rand3"
         d="M2880,-225 L2880,2880 L-225,2880" />
      <path
         id="linie-2"
         class="Rand3"
         d="M-225,4320 L2880,4320 L2880,7425" />
      <path
         id="linie-3"
         class="Rand3"
         d="M4320,-225 L4320,2880 L7425,2880" />
      <path
         id="linie-4"
         class="Rand3"
         d="M7425,4320 L4320,4320 L4320,7425" />
      <path
         id="linie-5"
         class="Rand3"
         d="M-225,3600 L7425,3600" />
      <path
         id="linie-6"
         class="Rand3"
         d="M3600,-225 L3600,7425" />
    </g>
    <path
       id="clip-boundary"
       class="Rand6"
       d="M360,4140 A3240,3240 0.0 0 0 6840,4140 L6840,270 L360,270 L360,4140 Z" />
  </g>
</svg>
